icons/circle/48/worms-reloaded.svg

<svg version="1.1" viewBox="0 0 48 48" xmlns="http://www.w3.org/2000/svg">
 <defs>
  <linearGradient id="bg" x2="0" y1="47" y2="1" gradientUnits="userSpaceOnUse">
   <stop style="stop-color:#ffb81f" offset="0"/>
   <stop style="stop-color:#ffbe33" offset="1"/>
  </linearGradient>
 </defs>
 <path d="m36.31 5c5.859 4.062 9.688 10.831 9.688 18.5 0 12.426-10.07 22.5-22.5 22.5-7.669 0-14.438-3.828-18.5-9.688 1.037 1.822 2.306 3.499 3.781 4.969 4.085 3.712 9.514 5.969 15.469 5.969 12.703 0 23-10.298 23-23 0-5.954-2.256-11.384-5.969-15.469-1.469-1.475-3.147-2.744-4.969-3.781zm4.969 3.781c3.854 4.113 6.219 9.637 6.219 15.719 0 12.703-10.297 23-23 23-6.081 0-11.606-2.364-15.719-6.219 4.16 4.144 9.883 6.719 16.219 6.719 12.703 0 23-10.298 23-23 0-6.335-2.575-12.06-6.719-16.219z" style="opacity:.05"/>
 <path d="m41.28 8.781c3.712 4.085 5.969 9.514 5.969 15.469 0 12.703-10.297 23-23 23-5.954 0-11.384-2.256-15.469-5.969 4.113 3.854 9.637 6.219 15.719 6.219 12.703 0 23-10.298 23-23 0-6.081-2.364-11.606-6.219-15.719z" style="opacity:.1"/>
 <path d="m31.25 2.375c8.615 3.154 14.75 11.417 14.75 21.13 0 12.426-10.07 22.5-22.5 22.5-9.708 0-17.971-6.135-21.12-14.75a23 23 0 0 0 44.875-7 23 23 0 0 0-16-21.875z" style="opacity:.2"/>
 <path d="m24 1c12.703 0 23 10.297 23 23s-10.297 23-23 23-23-10.297-23-23 10.297-23 23-23z" style="fill:url(#bg)"/>
 <g transform="translate(1,1)"></g>
 <path d="m40.03 7.531c3.712 4.084 5.969 9.514 5.969 15.469 0 12.703-10.297 23-23 23-5.954 0-11.384-2.256-15.469-5.969 4.178 4.291 10.01 6.969 16.469 6.969 12.703 0 23-10.298 23-23 0-6.462-2.677-12.291-6.969-16.469z" style="opacity:.1"/>
 <path d="m24.646 10a15 15 0 0 0-7.146 2.01l5 8.666a5 5 0 0 1 2.5-0.676 5 5 0 0 1 2.498 0.674l5.002-8.664a15 15 0 0 0-7.854-2.01zm0.354 12a3 3 0 0 0-3 3 3 3 0 0 0 3 3 3 3 0 0 0 3-3 3 3 0 0 0-3-3zm-15 3a15 15 0 0 0 7.5 12.99l5-8.664a5 5 0 0 1-2.5-4.326h-10zm20 0a5 5 0 0 1-2.504 4.324l5.004 8.666a15 15 0 0 0 7.5-12.99h-10z" style="opacity:.1"/>
 <path d="m23.646 9a15 15 0 0 0-7.146 2.01l5.004 8.666a5 5 0 0 1 2.496-0.676 5 5 0 0 1 2.498 0.674l5.002-8.664a15 15 0 0 0-7.854-2.01zm0.354 12a3 3 0 0 0-3 3 3 3 0 0 0 3 3 3 3 0 0 0 3-3 3 3 0 0 0-3-3zm-15 3a15 15 0 0 0 7.5 12.99l5.002-8.664a5 5 0 0 1-2.502-4.326h-10zm20 0a5 5 0 0 1-2.504 4.324l5.004 8.666a15 15 0 0 0 7.5-12.99h-10z" style="fill:#3d3d3d"/>
</svg>

<svg xmlns="http://www.w3.org/2000/svg" viewBox="0 0 48 48">
 <defs>
  <linearGradient id="linearGradient3764" y1="47" x2="0" y2="1" gradientUnits="userSpaceOnUse">
   <stop style="stop-color:#ffb81f;stop-opacity:1"/>
   <stop offset="1" style="stop-color:#ffbe33;stop-opacity:1"/>
  </linearGradient>
 </defs>
 <g>
  <path d="m 36.31 5 c 5.859 4.062 9.688 10.831 9.688 18.5 c 0 12.426 -10.07 22.5 -22.5 22.5 c -7.669 0 -14.438 -3.828 -18.5 -9.688 c 1.037 1.822 2.306 3.499 3.781 4.969 c 4.085 3.712 9.514 5.969 15.469 5.969 c 12.703 0 23 -10.298 23 -23 c 0 -5.954 -2.256 -11.384 -5.969 -15.469 c -1.469 -1.475 -3.147 -2.744 -4.969 -3.781 z m 4.969 3.781 c 3.854 4.113 6.219 9.637 6.219 15.719 c 0 12.703 -10.297 23 -23 23 c -6.081 0 -11.606 -2.364 -15.719 -6.219 c 4.16 4.144 9.883 6.719 16.219 6.719 c 12.703 0 23 -10.298 23 -23 c 0 -6.335 -2.575 -12.06 -6.719 -16.219 z" style="opacity:0.05"/>
  <path d="m 41.28 8.781 c 3.712 4.085 5.969 9.514 5.969 15.469 c 0 12.703 -10.297 23 -23 23 c -5.954 0 -11.384 -2.256 -15.469 -5.969 c 4.113 3.854 9.637 6.219 15.719 6.219 c 12.703 0 23 -10.298 23 -23 c 0 -6.081 -2.364 -11.606 -6.219 -15.719 z" style="opacity:0.1"/>
  <path d="m 31.25 2.375 c 8.615 3.154 14.75 11.417 14.75 21.13 c 0 12.426 -10.07 22.5 -22.5 22.5 c -9.708 0 -17.971 -6.135 -21.12 -14.75 a 23 23 0 0 0 44.875 -7 a 23 23 0 0 0 -16 -21.875 z" style="opacity:0.2"/>
 </g>
 <g>
  <path d="m 24 1 c 12.703 0 23 10.297 23 23 c 0 12.703 -10.297 23 -23 23 -12.703 0 -23 -10.297 -23 -23 0 -12.703 10.297 -23 23 -23 z" style="fill:url(#linearGradient3764);fill-opacity:1"/>
 </g>
 <g>
  <g>
   <g transform="translate(1,1)">
    <g style="opacity:0.1">
     <!-- color: #ffbe33 -->
    </g>
   </g>
  </g>
 </g>
 <g>
  <g>
   <!-- color: #ffbe33 -->
  </g>
 </g>
 <g>
  <path d="m 40.03 7.531 c 3.712 4.084 5.969 9.514 5.969 15.469 0 12.703 -10.297 23 -23 23 c -5.954 0 -11.384 -2.256 -15.469 -5.969 4.178 4.291 10.01 6.969 16.469 6.969 c 12.703 0 23 -10.298 23 -23 0 -6.462 -2.677 -12.291 -6.969 -16.469 z" style="opacity:0.1"/>
 </g>
 <path d="M 24.646 10 A 15 15 0 0 0 17.5 12.01 l 5 8.666 A 5 5 0 0 1 25 20 5 5 0 0 1 27.498 20.674 L 32.5 12.01 a 15 15 0 0 0 -7.854 -2.01 z M 25 22 a 3 3 0 0 0 -3 3 3 3 0 0 0 3 3 3 3 0 0 0 3 -3 3 3 0 0 0 -3 -3 z m -15 3 A 15 15 0 0 0 17.5 37.99 l 5 -8.664 A 5 5 0 0 1 20 25 l -10 0 z m 20 0 a 5 5 0 0 1 -2.504 4.324 L 32.5 37.99 A 15 15 0 0 0 40 25 l -10 0 z" style="fill:#000;opacity:0.1;fill-opacity:1;stroke:none"/>
 <path d="M 23.646 9 A 15 15 0 0 0 16.5 11.01 L 21.504 19.676 A 5 5 0 0 1 24 19 A 5 5 0 0 1 26.498 19.674 L 31.5 11.01 A 15 15 0 0 0 23.646 9 z M 24 21 A 3 3 0 0 0 21 24 A 3 3 0 0 0 24 27 A 3 3 0 0 0 27 24 A 3 3 0 0 0 24 21 z M 9 24 A 15 15 0 0 0 16.5 36.99 L 21.502 28.326 A 5 5 0 0 1 19 24 L 9 24 z M 29 24 A 5 5 0 0 1 26.496 28.324 L 31.5 36.99 A 15 15 0 0 0 39 24 L 29 24 z" style="fill:#2d2d2d;opacity:1;fill-opacity:1;stroke:none"/>
</svg>
